svgs/light/shish-kebab.svg

<svg xmlns="http://www.w3.org/2000/svg" viewBox="0 0 512 512"><!-- Font Awesome Pro 6.0.0-alpha2 by @fontawesome - https://fontawesome.com License - https://fontawesome.com/license (Commercial License) --><path d="M483.875 27.26C447.625 -9.088 384.375 -9.088 348.125 27.26C329.984 45.416 320 69.568 320 95.256C320 115.525 326.219 134.826 337.734 150.98L316.537 172.227L274.047 129.65C249.482 105.162 209.754 105.162 185.191 129.65L142.83 172.223C130.172 184.781 123.529 202.236 124.533 220.068C106.736 219.064 89.316 225.721 76.783 238.404L34.424 280.977C9.859 305.465 9.859 345.273 34.424 369.887L76.799 412.398L4.688 484.639C-1.563 490.898 -1.563 501.043 4.688 507.303C7.812 510.434 11.906 512 16 512S24.188 510.434 27.312 507.303L99.408 435.08L141.828 477.637C153.607 489.441 169.525 495.971 186.193 495.971S218.777 489.441 230.559 477.637L273.045 435.064C285.703 422.506 292.344 405.051 291.342 387.217C309.139 388.223 326.559 381.566 339.092 368.883L381.576 326.436C393.357 314.631 400 298.557 400 281.855C400 265.277 393.357 249.203 381.576 237.398L339.162 194.896L370.75 163.252C373.75 160.246 375.438 156.178 375.438 151.92S373.75 143.592 370.75 140.586C358.656 128.471 352 112.379 352 95.256C352 78.131 358.656 62.039 370.75 49.924C394.938 25.693 437.062 25.693 461.25 49.924C473.344 62.039 480 78.131 480 95.256C480 112.379 473.344 128.471 461.25 140.586C455 146.848 455 156.99 461.25 163.252S477.625 169.514 483.875 163.252C502.016 145.094 512 120.941 512 95.256C512 69.568 502.016 45.416 483.875 27.26ZM250.359 412.334C239.738 422.977 218.496 444.264 207.875 454.906C195.969 466.836 176.512 466.867 164.512 454.906C137.559 428.039 83.781 374.176 56.982 347.156C45.049 335.127 45.076 315.637 56.982 303.705C67.604 293.062 88.846 271.777 99.467 261.135C111.373 249.203 130.83 249.172 142.83 261.135C169.783 288 223.561 341.863 250.359 368.883C262.293 380.912 262.266 400.404 250.359 412.334ZM358.768 303.705L316.408 346.152C304.377 358.209 284.951 358.209 273.045 346.152L165.514 238.404C153.482 226.473 153.482 207.008 165.514 194.953L207.875 152.506C219.906 140.451 239.332 140.451 251.363 152.506L358.768 260.129C370.799 272.186 370.799 291.65 358.768 303.705Z"/></svg>

<svg xmlns="http://www.w3.org/2000/svg" viewBox="0 0 512 512"><!--! Font Awesome Pro 6.3.0 by @fontawesome - https://fontawesome.com License - https://fontawesome.com/license (Commercial License) Copyright 2023 Fonticons, Inc. --><path d="M483.9 27.26c-36.25-36.35-99.5-36.35-135.8 0C329.1 45.42 320 69.57 320 95.26c0 20.27 6.219 39.57 17.73 55.72l-21.2 21.25l-42.49-42.58c-24.56-24.49-64.29-24.49-88.86 0L142.8 172.2C130.2 184.8 123.5 202.2 124.5 220.1C106.7 219.1 89.32 225.7 76.78 238.4L34.42 280.1c-24.56 24.49-24.56 64.3 0 88.91l42.38 42.51l-72.11 72.24c-6.25 6.26-6.25 16.4 0 22.66C7.813 510.4 11.91 512 16 512s8.188-1.566 11.31-4.697l72.1-72.22l42.42 42.56c11.78 11.8 27.7 18.33 44.37 18.33s32.58-6.529 44.37-18.33l42.49-42.57c12.66-12.56 19.3-30.01 18.3-47.85c17.8 1.006 35.22-5.65 47.75-18.33l42.48-42.45C393.4 314.6 400 298.6 400 281.9c0-16.58-6.643-32.65-18.42-44.46l-42.41-42.5l31.59-31.64c3-3.006 4.688-7.074 4.688-11.33s-1.688-8.328-4.688-11.33C358.7 128.5 352 112.4 352 95.26c0-17.12 6.656-33.22 18.75-45.33c24.19-24.23 66.31-24.23 90.5 0C473.3 62.04 480 78.13 480 95.26c0 17.12-6.656 33.21-18.75 45.33c-6.25 6.262-6.25 16.4 0 22.67s16.38 6.262 22.62 0C502 145.1 512 120.9 512 95.26C512 69.57 502 45.42 483.9 27.26zM250.4 412.3l-42.48 42.57c-11.91 11.93-31.36 11.96-43.36 0c-26.95-26.87-80.73-80.73-107.5-107.8c-11.93-12.03-11.91-31.52 0-43.45l42.48-42.57c11.91-11.93 31.36-11.96 43.36 0C169.8 288 223.6 341.9 250.4 368.9C262.3 380.9 262.3 400.4 250.4 412.3zM358.8 303.7l-42.36 42.45c-12.03 12.06-31.46 12.06-43.36 0L165.5 238.4c-12.03-11.93-12.03-31.4 0-43.45l42.36-42.45c12.03-12.05 31.46-12.05 43.49 0l107.4 107.6C370.8 272.2 370.8 291.7 358.8 303.7z"/></svg>
